X: 03028
T: EVERY OTHER JIG
C: Bob McQuillen 3 Jan 77
B: Bob's Note Book 03 #28
R: jig
%D:1977
Z: 2020 John Chambers <jc:trillian.mit.edu>
M: 6/8
L: 1/8
K: G
FE \
| DGG GFE | DAA AFE | DGB cde | dBG AFE |\
| DGG GFE | DAA AFA | GBd cAF | AGG G  :|
|: Bc \
| dBd ece | dBG GBc | dBd gfg | afd dga |\
| bgg agg | bab gfe | dBG Adc | BGG G  :|
%%begintext align
%% I wrote this tune, but it
%% sure sounds like every other
%% jig to me! Hope you like it.
%%endtext

%%sep 1 1 500

%%sep 1 1 500

